src/lib/packages/icons/src/assets/line/chat-code.svg

<svg width="24" height="24" viewBox="0 0 24 24" fill="none" xmlns="http://www.w3.org/2000/svg">
<path d="M12.001 2.25C6.626 2.25 2.25295 6.62302 2.25295 11.999C2.25295 13.399 2.56405 14.808 3.15505 16.082C3.27005 16.325 3.27893 16.633 3.18093 16.94L2.34011 19.441C2.13011 20.073 2.29311 20.76 2.76711 21.233C3.10311 21.569 3.54692 21.749 4.00392 21.749C4.18992 21.749 4.37705 21.719 4.56105 21.658L7.05007 20.822C7.36707 20.721 7.67607 20.728 7.92507 20.848C9.19207 21.437 10.601 21.748 12 21.748C17.376 21.748 21.749 17.375 21.749 11.999C21.749 6.62302 17.377 2.25 12.001 2.25ZM12.001 20.248C10.818 20.248 9.62796 19.985 8.56496 19.491C7.97696 19.21 7.27703 19.175 6.58303 19.397L4.08498 20.236C3.95998 20.278 3.8699 20.214 3.8279 20.172C3.7859 20.13 3.72193 20.041 3.76393 19.916L4.60793 17.405C4.82493 16.722 4.78996 16.023 4.51296 15.442C4.01596 14.372 3.75295 13.182 3.75295 11.998C3.75295 7.44999 7.453 3.74902 12.001 3.74902C16.55 3.74902 20.25 7.44899 20.25 11.998C20.25 16.547 16.55 20.248 12.001 20.248ZM11.03 10.53L9.56008 12L11.03 13.47C11.323 13.763 11.323 14.238 11.03 14.531C10.884 14.677 10.692 14.751 10.5 14.751C10.308 14.751 10.116 14.678 9.96999 14.531L7.96999 12.531C7.67699 12.238 7.67699 11.763 7.96999 11.47L9.96999 9.46997C10.263 9.17697 10.738 9.17697 11.031 9.46997C11.323 9.76197 11.323 10.238 11.03 10.53ZM16.03 11.47C16.323 11.763 16.323 12.238 16.03 12.531L14.03 14.531C13.884 14.677 13.692 14.751 13.5 14.751C13.308 14.751 13.116 14.678 12.97 14.531C12.677 14.238 12.677 13.763 12.97 13.47L14.44 12L12.97 10.53C12.677 10.237 12.677 9.76199 12.97 9.46899C13.263 9.17599 13.738 9.17599 14.031 9.46899L16.03 11.47Z" fill="currentColor"/>
</svg>

<svg xmlns="http://www.w3.org/2000/svg" width="24" height="24" fill="none"><path fill="currentColor" d="M12.001 2.25c-5.375 0-9.748 4.373-9.748 9.749 0 1.4.311 2.809.902 4.083.115.243.124.551.026.858l-.84 2.501a1.743 1.743 0 0 0 .426 1.792 1.745 1.745 0 0 0 1.794.425l2.49-.836c.316-.101.625-.094.874.026a9.73 9.73 0 0 0 4.075.9c5.376 0 9.749-4.373 9.749-9.749S17.377 2.25 12.001 2.25Zm0 17.998a8.214 8.214 0 0 1-3.436-.757c-.588-.281-1.288-.316-1.982-.094l-2.498.839a.244.244 0 0 1-.257-.064.242.242 0 0 1-.064-.256l.844-2.511c.217-.683.182-1.382-.095-1.963a8.227 8.227 0 0 1-.76-3.444c0-4.548 3.7-8.249 8.248-8.249 4.549 0 8.249 3.7 8.249 8.249s-3.7 8.25-8.249 8.25Zm-.971-9.718L9.56 12l1.47 1.47a.75.75 0 0 1-1.06 1.061l-2-2a.75.75 0 0 1 0-1.061l2-2a.75.75 0 1 1 1.06 1.06Zm5 .94a.75.75 0 0 1 0 1.061l-2 2a.748.748 0 0 1-1.06 0 .75.75 0 0 1 0-1.061L14.44 12l-1.47-1.47a.75.75 0 1 1 1.061-1.061l1.999 2.001Z"/></svg>
